!!!COM: Giovannelli, Ruggero
!!!CDT: ~1560///-1625/01/07/
!!!OTL: Moritur in ligno
!!!OTL2: Morir&ograve; di dolor
!!!ONM: No. 13
!!!SMS: Musica tolta da i madrigali di Claudio Monteverdi, e d'altri autori, e fatta spirituale
!!!PPR: A. Coppini, ed.
!!!PPP: Milan
!!!PDT: 1607
!!!URL: http://www.jpj.dk/coppini.htm
!!!AIN: contrafacta
**kern	**kern	**kern	**kern	**kern
*staff5	*staff4	*staff3	*staff2	*staff1
*clefF4	*clefGv2	*clefGv2	*clefG2	*clefG2
*Ivox	*Ivox	*Ivox	*Ivox	*Ivox
!basso	!tenore	!alto	!quinto	!canto
*k[b-]	*k[b-]	*k[b-]	*k[b-]	*k[b-]
*M4/4	*M4/4	*M4/4	*M4/4	*M4/4
*MM120	*MM120	*MM120	*MM120	*MM120
=1-	=1-	=1-	=1-	=1-
1r	[1d	1r	[1a	[1dd
=2	=2	=2	=2	=2
1r	2d\]	[1f#	2a/]	2dd\]
.	2d\	.	2a/	2dd\
=3	=3	=3	=3	=3
1r	1d	2f#\]	1a	[1dd
.	.	2f#\	.	.
=4	=4	=4	=4	=4
1r	1G	[1g	1b-	1dd]
=5	=5	=5	=5	=5
1r	1G	1g]	1b-	[1gg
=6	=6	=6	=6	=6
1r	[1A	2c\	[1a	2gg\]
.	.	[2d\	.	2ff\
=7	=7	=7	=7	=7
1r	1A]	2d\]	1a]	1ee
.	.	2c#\	.	.
=8	=8	=8	=8	=8
1r	2A/	2e\	2a/	2cc#\
.	4A/	4e\	4a/	4cc#\
.	4d\	4f\	4a/	4dd\
=9	=9	=9	=9	=9
1r	2c\	2g\	2cc\	2ee\
.	2c\	2g\	2cc\	2ee\
=10	=10	=10	=10	=10
1r	2f\	2a\	2cc\	2ff\
.	4f\	4a\	4cc\	4ff\
.	4c\	4g\	4cc\	4ee\
=11	=11	=11	=11	=11
1r	2d\	2f\	2a/	2dd\
.	2A/	2e\	2a/	2cc\
=12	=12	=12	=12	=12
1r	4B-\	4d\	4f/	4b-\
.	4B-\	4d\	4f/	4b-\
.	[2B-\	[2d\	[2f/	[2b-\
=13	=13	=13	=13	=13
1r	2B-\]	2d\]	2f/]	2b-\]
.	2G/	[2e\	2g/	2b-\
=14	=14	=14	=14	=14
1r	[1A	2e\]	1f	[1a
.	.	[2d\	.	.
=15	=15	=15	=15	=15
1r	1A]	2d\]	1e	1a]
.	.	2c#\	.	.
=16	=16	=16	=16	=16
1r	1d	1d	1f#	1a
=17	=17	=17	=17	=17
[1G	[1Bn	[1d	[1g	[1dd
=18	=18	=18	=18	=18
2G\]	2B\]	2d\]	2g/]	2dd\]
2G\	2Bn\	2d\	2g/	2dd\
=19	=19	=19	=19	=19
1G	1Bn	2d\	[1g	2dd\
.	.	[2G/	.	2dd\
=20	=20	=20	=20	=20
2C/	[1c	2G\]	1g]	2ee-\
2C/	.	2G\	.	2ee-\
=21	=21	=21	=21	=21
[1D	2c\]	[1d	2f#/	[1dd
.	2B-\	.	[2g/	.
=22	=22	=22	=22	=22
1D]	1A	1d]	2g/]	1dd]
.	.	.	2f#/	.
=23	=23	=23	=23	=23
2D\	2d\	1r	2f#/	2a/
4D\	4d\	.	4f#/	4a/
4G\	4d\	.	4g/	4b-\
=24	=24	=24	=24	=24
2F\	2f\	1r	2a/	2cc\
2F\	2f\	.	2a/	2cc\
=25	=25	=25	=25	=25
2B-\	2f\	2d\	2b-\	2dd\
4B-\	4f\	4d\	4b-\	4dd\
4F\	4f\	4A/	4a/	4cc\
=26	=26	=26	=26	=26
2G\	2d\	2B-\	2g/	2b-\
2D\	2d\	2d\	2f/	2a/
=27	=27	=27	=27	=27
4E-\	1r	4B-\	4e-/	4g/
4E-\	.	4B-\	4e-/	4g/
[2E-\	.	[2B-\	[2e-/	[2g/
=28	=28	=28	=28	=28
2E-\]	4B-\	2B-\]	2e-/]	2g/]
.	4B-\	.	.	.
2C/	[2c\	2e\	2g/	2g/
=29	=29	=29	=29	=29
[1D	2c\]	[1d	2f#/	[1dd
.	2B-\	.	[2g/	.
=30	=30	=30	=30	=30
1D]	1A	1d]	2g/]	1dd]
.	.	.	2f#/	.
=31	=31	=31	=31	=31
2G\	1G	4d\	4g/	2dd\
.	.	4.B-\	4.g/	.
4r	.	.	.	4r
.	.	8c\	8a/	.
[4G\	.	4d\	4b-\	[4b-\
=32	=32	=32	=32	=32
8G\]	1r	4.d\	4g/	8b-\]
8A\	.	.	.	8cc\
4B-\	.	.	8f/L	4dd\
.	.	8e\	8g/J	.
4F\	.	4f\	4a/	4cc\
4G\	.	4d\	4g/	4b-\
=33	=33	=33	=33	=33
2D\	2r	2d\	4f#/	4a/
.	.	.	4f#/	4a/
2D\	4r	4d\	2r	4.dd\
.	[4d\	[4f\	.	.
.	.	.	.	8ee\
=34	=34	=34	=34	=34
1r	8d\]	8f\]	4.a/	2ff\
.	8e\	8g\	.	.
.	4f\	4a\	.	.
.	.	.	8b-\	.
.	4c\	4g\	4cc\	4ee\
.	4d\	4f\	[4a/	4dd\
=35	=35	=35	=35	=35
2r	4A/	2e\	4a/]	2cc#\
.	4A/	.	4a/	.
4r	4.d\	2d\	2a/	2dd\
[4D\	.	.	.	.
.	8e\	.	.	.
=36	=36	=36	=36	=36
8D\]	4f\	4.A/	4a/	4r
8E\	.	.	.	.
4F\	2c\	.	4.a/	4.cc\
.	.	8B-\	.	.
4C/	.	4c\	.	.
.	.	.	8b-\	8dd\
4C/	4G/	[4c\	4cc\	4ee-\
=37	=37	=37	=37	=37
1D	1d	4c\]	4f/	4dd\
.	.	4B-\	2g/	4dd\
.	.	2A/	.	2dd\
.	.	.	4f#/	.
=38	=38	=38	=38	=38
2G\	1d	2G/	2g/	2dd\
4r	.	4r	4r	4r
4G\	.	4d\	4b-\	4dd\
=39	=39	=39	=39	=39
4.G\	1r	4.d\	4.g/	4.b-\
8G\	.	8d\	8g/	8b-\
4G\	.	4d\	4g/	4b-\
4F\	.	4f\	4a/	4cc\
=40	=40	=40	=40	=40
2B-\	2r	2f\	2b-\	2dd\
4B-\	4r	2f\	4b-\	4dd\
4d\	4d\	.	4a/	4dd\
=41	=41	=41	=41	=41
4.G\	4.d\	1r	4.g/	4.b-\
8G\	8d\	.	8g/	8b-\
4G\	4d\	.	4g/	4b-\
4F\	4f\	.	4a/	4cc\
=42	=42	=42	=42	=42
2B-\	2f\	1r	2b-\	2dd\
4B-\	4f\	.	4b-\	4dd\
4d\	4f\	.	4f/	4a/
=43	=43	=43	=43	=43
4c\	4e\	1r	4g/	4cc\
4A\	4f\	.	4a/	4cc\
4B-\	4d\	.	4f/	4b-\
4G\	4d\	.	4g/	4b-\
=44	=44	=44	=44	=44
2A\	2c#\	1r	2e/	2a/
2A\	2c#\	.	2e/	2a/
=45	=45	=45	=45	=45
2D\	2d\	1r	2r	2r
[2G\	[2B-\	.	2d/	2dd\
=46	=46	=46	=46	=46
4G\]	4B-\]	1r	4d/	4g/
4F\	4A/	.	4d/	4a/
4E-\	4G/	.	4g/	4b-\
4C/	4G/	.	4g/	4cc\
=47	=47	=47	=47	=47
1D	2d\	2A/	4f#/	2a/
.	.	.	4a/	.
.	2f\	[2d\	4a/	4r
.	.	.	4g/	4dd\
=48	=48	=48	=48	=48
1r	4f\	4d\]	2f/	4dd\
.	4e\	4c\	.	4ee\
.	4d\	4B-\	2b-\	4ff\
.	4d\	4G/	.	4gg\
=49	=49	=49	=49	=49
1r	1c#	1A	[1a	2ee\
.	.	.	.	2ee\
=50	=50	=50	=50	=50
1r	2r	1A	1a]	2ff\
.	2e\	.	.	[2ee\
=51	=51	=51	=51	=51
1r	2f\	1A	2r	4ee\]
.	.	.	.	2dd\
.	[2e\	.	2e/	.
.	.	.	.	8cc\L
.	.	.	.	8b-\J
=52	=52	=52	=52	=52
1r	2e\]	1A	2f/	[1a
.	[2d\	.	2f/	.
=53	=53	=53	=53	=53
1r	2d\]	1A	1e	1a]
.	2c#\	.	.	.
=54	=54	=54	=54	=54
2r	1d	2d\	2f#/	2a/
4r	.	2d\	4r	4r
4d\	.	.	4f#/	4dd\
=55	=55	=55	=55	=55
4.G\	1r	4.d\	4.g/	4.b-\
8G\	.	8d\	8g/	8b-\
4G\	.	4d\	4g/	4b-\
4F\	.	4f\	4a/	4cc\
=56	=56	=56	=56	=56
2B-\	1r	2f\	2b-\	2dd\
4B-\	.	4f\	4b-\	4dd\
4d\	.	4f\	4a/	4dd\
=57	=57	=57	=57	=57
4.G\	1r	4.d\	4.g/	4.b-\
8G\	.	8d\	8g/	8b-\
4G\	.	4d\	4g/	4b-\
4F\	.	4f\	4a/	4cc\
=58	=58	=58	=58	=58
2B-\	1r	2f\	2b-\	2dd\
4B-\	.	4f\	4b-\	4dd\
4d\	.	4f\	4f/	4a/
=59	=59	=59	=59	=59
4c\	1r	4e\	4g/	4cc\
4A\	.	4f\	4a/	4cc\
4B-\	.	4d\	4f/	4b-\
4G\	.	4d\	4g/	4b-\
=60	=60	=60	=60	=60
2A\	1r	2c#\	2e/	2a/
2A\	.	2c#\	2e/	2a/
=61	=61	=61	=61	=61
2D\	2d\	1r	2r	2r
2G\	[2B-\	.	2d/	2dd\
=62	=62	=62	=62	=62
4G\	4B-\]	1r	4d/	4g/
4F\	4A/	.	4d/	4a/
4E-\	4G/	.	4g/	4b-\
4C/	4G/	.	4g/	4cc\
=63	=63	=63	=63	=63
4D\	2d\	1r	4f#/	2a/
4D\	.	.	4a/	.
[2d\	2f\	.	4a/	4r
.	.	.	4g/	4dd\
=64	=64	=64	=64	=64
4d\]	4f\	1r	2f/	4dd\
4c\	4e\	.	.	4ee\
4B-\	4d\	.	2b-\	4ff\
4G\	4d\	.	.	4gg\
=65	=65	=65	=65	=65
1A	1c#	2r	1a	1ee
.	.	2e\	.	.
=66	=66	=66	=66	=66
1A	1r	2f\	1a	2r
.	.	[2e\	.	2ee\
=67	=67	=67	=67	=67
1A	2r	4e\]	1a	2ff\
.	.	2d\	.	.
.	2e\	.	.	[2ee\
.	.	8c#\L	.	.
.	.	8Bn\J	.	.
=68	=68	=68	=68	=68
1A	2f\	2c#\	1a	2ee\]
.	2f\	2d\	.	[2dd\
=69	=69	=69	=69	=69
1A	1e	1e	1a	2dd\]
.	.	.	.	2cc#\
=70	=70	=70	=70	=70
2D\	4d\	1f#	1a	1dd
.	4A/	.	.	.
2D\	4d\	.	.	.
.	4c\	.	.	.
=71	=71	=71	=71	=71
2.G\	2.B-\	1r	2d/	4r
.	.	.	.	4dd\
.	.	.	4d/	4g/
4F\	4A/	.	4d/	4a/
=72	=72	=72	=72	=72
4E-\	2G/	1r	4g/	4b-\
4C/	.	.	4g/	4cc\
2D\	2r	.	4f/	4a/
.	.	.	[4f/	4a/
=73	=73	=73	=73	=73
1D	1r	2r	4f/]	2b-\
.	.	.	2g/	.
.	.	2A/	.	[2a/
.	.	.	4f/	.
=74	=74	=74	=74	=74
1D	2r	2B-\	4f/	4a/]
.	.	.	4g/	2g/
.	2A/	2A/	[2a/	.
.	.	.	.	4f/
=75	=75	=75	=75	=75
1D	2B-\	[1d	2a/]	2r
.	2B-\	.	[2g/	2dd\
=76	=76	=76	=76	=76
1D	1A	1d]	2g/]	1dd
.	.	.	2f#/	.
=77	=77	=77	=77	=77
1G;	1G;	1d;	1g;	1bn;
==	==	==	==	==
*-	*-	*-	*-	*-
!!!ENC: Craig Stuart Sapp
!!!END: 2004/12/10/
